X: 68
M: 4/4
L: 1/8
K: G
ef |\
gfga gfed | B[B2G2][BG] [B2G2]dB | [AF][A2F2][AF] [A2F2]dc | B[B2G2]"a."[BG] [B2G2]ef |
gfga gfed | B[B2G2][BG] [B2G2]cB | A^GAB cdef | [g2B2] [gB2]f [g2B2] ::
K:D
((3FG^G) |\
P: 1st part again
!Segno!\
|: A2- |\
P: Var:
[K:G]"a."F ||[K:D] "b."d2dc |]


